!!!OTL: ICH GING IM NAECHTLICH STILLEN HAINE
!!!ARE: Europa, Mitteleuropa, Deutschland, Hessen
!!!SCT: E0650
!!!YEM: Copyright 1995, estate of Helmut Schaffrath.
**kern
*ICvox
*Ivox
*M4/4
*k[f#c#g#]
*A:
{8e
8e
8e
=1
4.a
8a
4a
8g#
8a
=2
8cc#
8b
4b
4r}
{8g#
8a
=3
4.b
8b
8b
8b
8a
8b
=4
4cc#
8ee
8dd
4cc#
8r}
{8ee
=5
4.b
8ee
8b
8b
8a
8f#
=6
2e
4r}
{8e
8b
=7
4.b
8b
8a
8g#
8f#
8e
=8
8cc#
8a
4a
4r}
{8a
8cc#
=9
4.ee
8cc#
8ff#
8ee
8dd
8cc#
=10
8dd
8b
4b
4r}
{4ff#
=11
8ee
8g#
8a
8b
4cc#
4b
=12
2a
8r}
==
!!!AGN: Liebes - Lied
!!!ONB: ESAC (Essen Associative Code) Database: ERK2
!!!AMT: simple quadruple
!!!AIN: vox
!!!EED: Helmut Schaffrath
!!!EEV: 1.0
*-
